components/Common/Svg/svgs/attachment.svg

<svg width="40" height="40" viewBox="0 0 40 40" fill="none" xmlns="http://www.w3.org/2000/svg">
<path fill-rule="evenodd" clip-rule="evenodd" d="M24.811 6.87278C21.9621 4.72844 18.0379 4.72844 15.189 6.87278C13.181 8.38417 12 10.7513 12 13.2645V27.4032C12 27.9555 11.5523 28.4032 11 28.4032C10.4477 28.4032 10 27.9555 10 27.4032V13.2645C10 10.123 11.4763 7.16408 13.9863 5.27485C17.5474 2.59442 22.4526 2.59442 26.0137 5.27485C28.5237 7.16408 30 10.123 30 13.2645V30.288C30 32.7019 28.7355 34.9395 26.6675 36.1847C24.6451 37.4025 22.1396 37.4989 20.0296 36.4401L19.7426 36.2961C17.2185 35.0295 15.625 32.4471 15.625 29.623V15.9394C15.625 14.2918 16.5065 12.77 17.9359 11.9503L18.2279 11.7829C19.6929 10.9427 21.523 11.0855 22.84 12.1429C23.8104 12.922 24.375 14.0993 24.375 15.3438V27.4032C24.375 27.9555 23.9273 28.4032 23.375 28.4032C22.8227 28.4032 22.375 27.9555 22.375 27.4032V15.3438C22.375 14.7057 22.0855 14.1019 21.5879 13.7024C20.9125 13.1602 19.9741 13.087 19.2228 13.5178L18.9308 13.6853C18.1231 14.1485 17.625 15.0084 17.625 15.9394V29.623C17.625 31.6906 18.7916 33.5812 20.6396 34.5086L20.9266 34.6526C22.4235 35.4037 24.201 35.3353 25.6358 34.4714C27.1029 33.5879 28 32.0005 28 30.288V13.2645C28 10.7513 26.819 8.38417 24.811 6.87278Z" fill="#161616"/>
</svg>

<svg width="40" height="40" viewBox="0 0 40 40" fill="none" xmlns="http://www.w3.org/2000/svg"><path fill-rule="evenodd" clip-rule="evenodd" d="M24.811 6.873A8 8 0 0 0 12 13.264v14.14a1 1 0 1 1-2 0v-14.14a10 10 0 0 1 20 0v17.024a6.883 6.883 0 0 1-9.97 6.152l-.287-.144a7.466 7.466 0 0 1-4.118-6.673V15.939c0-1.647.881-3.169 2.31-3.989l.293-.167a4.105 4.105 0 0 1 6.147 3.56v12.06a1 1 0 1 1-2 0v-12.06a2.105 2.105 0 0 0-3.152-1.825l-.292.167a2.598 2.598 0 0 0-1.306 2.254v13.684a5.466 5.466 0 0 0 3.015 4.886l.287.144A4.884 4.884 0 0 0 28 30.288V13.265a8 8 0 0 0-3.189-6.392Z" fill="#161616"/></svg>
